src/lib/packages/icons/src/assets/line/briefcase-money.svg

<svg xmlns="http://www.w3.org/2000/svg" width="24" height="24" fill="none"><path fill="currentColor" d="M18 5.25h-1.25V4c0-.965-.785-1.75-1.75-1.75H9c-.965 0-1.75.785-1.75 1.75v1.25H6C3.582 5.25 2.25 6.582 2.25 9v9c0 2.418 1.332 3.75 3.75 3.75h12c2.418 0 3.75-1.332 3.75-3.75V9c0-2.418-1.332-3.75-3.75-3.75ZM8.75 4A.25.25 0 0 1 9 3.75h6a.25.25 0 0 1 .25.25v1.25h-6.5V4Zm11.5 14c0 1.577-.673 2.25-2.25 2.25H6c-1.577 0-2.25-.673-2.25-2.25V9c0-1.577.673-2.25 2.25-2.25h12c1.577 0 2.25.673 2.25 2.25v9ZM12 9.75a3.754 3.754 0 0 0-3.75 3.75A3.754 3.754 0 0 0 12 17.25a3.754 3.754 0 0 0 3.75-3.75A3.754 3.754 0 0 0 12 9.75Zm0 6a2.252 2.252 0 0 1-2.25-2.25A2.252 2.252 0 0 1 12 11.25a2.252 2.252 0 0 1 2.25 2.25A2.252 2.252 0 0 1 12 15.75ZM7 13.5a1 1 0 1 1-2 0 1 1 0 0 1 2 0Zm12 0a1 1 0 1 1-2 0 1 1 0 0 1 2 0Z"/></svg>

<svg width="24" height="24" viewBox="0 0 24 24" fill="none" xmlns="http://www.w3.org/2000/svg">
<path d="M18 5.25H16.75V4C16.75 3.035 15.965 2.25 15 2.25H9C8.035 2.25 7.25 3.035 7.25 4V5.25H6C3.582 5.25 2.25 6.582 2.25 9V18C2.25 20.418 3.582 21.75 6 21.75H18C20.418 21.75 21.75 20.418 21.75 18V9C21.75 6.582 20.418 5.25 18 5.25ZM8.75 4C8.75 3.862 8.862 3.75 9 3.75H15C15.138 3.75 15.25 3.862 15.25 4V5.25H8.75V4ZM20.25 18C20.25 19.577 19.577 20.25 18 20.25H6C4.423 20.25 3.75 19.577 3.75 18V9C3.75 7.423 4.423 6.75 6 6.75H18C19.577 6.75 20.25 7.423 20.25 9V18ZM12 9.75C9.932 9.75 8.25 11.432 8.25 13.5C8.25 15.568 9.932 17.25 12 17.25C14.068 17.25 15.75 15.568 15.75 13.5C15.75 11.432 14.068 9.75 12 9.75ZM12 15.75C10.759 15.75 9.75 14.741 9.75 13.5C9.75 12.259 10.759 11.25 12 11.25C13.241 11.25 14.25 12.259 14.25 13.5C14.25 14.741 13.241 15.75 12 15.75ZM7 13.5C7 14.052 6.552 14.5 6 14.5C5.448 14.5 5 14.052 5 13.5C5 12.948 5.448 12.5 6 12.5C6.552 12.5 7 12.948 7 13.5ZM19 13.5C19 14.052 18.552 14.5 18 14.5C17.448 14.5 17 14.052 17 13.5C17 12.948 17.448 12.5 18 12.5C18.552 12.5 19 12.948 19 13.5Z" fill="currentColor"/>
</svg>
